!!!COM: Schiørring, Niels
!!!CDT: 1743-1798
!!!OPR@@DA: Choral-Bog
!!!ONM: 93
!!!OTL@@DA: Udi din ſtore Vrede
**kern	**fb	**kern	**kern	**kern	**kern	**kern	**kern	**kern
*part6	*part6	*part6	*part5	*part5	*part4	*part3	*part2	*part1
*staff8	*	*staff7	*staff6	*staff5	*staff4	*staff3	*staff2	*staff1
*clefF4	*	*clefC1	*clefF4	*clefC1	*clefF4	*clefC4	*clefC3	*clefC1
*mclefF4	*	*mclefG2	*mclefF4	*mclefG2	*mclefF4	*mclefGv2	*mclefG2	*mclefG2
*k[f#]	*	*k[f#]	*k[f#]	*k[f#]	*k[f#]	*k[f#]	*k[f#]	*k[f#]
*G:	*	*G:	*G:	*G:	*G:	*G:	*G:	*G:
*M4/4	*	*M4/4	*M4/4	*M4/4	*M4/4	*M4/4	*M4/4	*M4/4
*met(c)	*	*met(c)	*met(c)	*met(c)	*met(c)	*met(c)	*met(c)	*met(c)
*MM180	*	*MM180	*MM180	*MM180	*MM180	*MM180	*MM180	*MM180
*	*above	*	*	*	*	*	*	*
*	*slash	*	*	*	*	*	*	*
*	*	*	*^	*^	*	*	*	*
=1	=1	=1	=1	=1	=1	=1	=1	=1	=1	=1
2E	.	2e	2G	2E	2e	2B	2E	2G	2B	2e
=2	=2	=2	=2	=2	=2	=2	=2	=2	=2	=2
2C	.	2e	1G	2C	2e	2c	2C	2G	2c	2e
2AA#X	7 5	2e	.	2AA#X	2e	2c#X	2AA#X	2G	2c#X	2e
=3	=3	=3	=3	=3	=3	=3	=3	=3	=3	=3
1BB	5 4	2e	2F#	1BB	2e	1B	2BB	2F#	2B	2e
.	6 3	2d	[2G	.	2d	.	2BB	[2G	2d	2d
=4	=4	=4	=4	=4	=4	=4	=4	=4	=4	=4
2C	6 5	1a	2G]	2C	1a	2e	(2C	(2G]	(2e	1a
2D	.	.	2F#	2D	.	2d	2D)	2F#)	2d)	.
=5	=5	=5	=5	=5	=5	=5	=5	=5	=5	=5
*	*	*	*	*	*	*^	*	*	*	*
2GG	.	2g	2G	2GG	2g	2d	2B\	2GG	2G	2B	2g
*	*	*	*	*	*	*v	*v	*	*	*	*
2G	.	2g	2ryy	2G	2B	2d	2G	2B	2d	2g
=6	=6	=6	=6	=6	=6	=6	=6	=6	=6	=6
2G	.	2b	1ryy	2G	2d	2g	2G	2d	2g	2b
2Fn	2	2b	.	2Fn	2d	2g	2Fn	2d	2g	2b
=7	=7	=7	=7	=7	=7	=7	=7	=7	=7	=7
4E	6	2cc	1ryy	4E	4e	4g	(4E	(4e	(4g	2cc
4F#Xi	5	.	.	4F#Xi	4d	4a	4F#Xi)	4d)	4a)	.
2G	.	2b	.	2G	2d	[2g	2G	2d	[2g	2b
=8	=8	=8	=8	=8	=8	=8	=8	=8	=8	=8
2C	6 5	1a	1ryy	2C	2e	2g]	(2C	(2e	(2g]	1a
2D	.	.	.	2D	4d	2f#	2D)	4d	2f#)	.
.	.	.	.	.	4c	.	.	4c)	.	.
=9	=9	=9	=9	=9	=9	=9	=9	=9	=9	=9
2GG	.	2g	2ryy	2GG	2B	2d	2GG	2B	2g	2g
2G	.	2d	2G	2G	2d	2B	2G	2d	2B	2d
=10	=10	=10	=10	=10	=10	=10	=10	=10	=10	=10
2G	6	2e	2B	2G	2e	2B	2G	2B	2B	2e
2E	.	2g	[2B	2E	2g	2e	2E	2B	2e	2g
=11	=11	=11	=11	=11	=11	=11	=11	=11	=11	=11
2BB	8 #	2f#	4B]	2BB	2f#	2d#X	2BB	(4B	2d#X	2f#
.	7	.	4A	.	.	.	.	4A)	.	.
2C	.	2e	[2G	2C	2e	[2e	2C	[2G	[2e	2e
=12	=12	=12	=12	=12	=12	=12	=12	=12	=12	=12
2BB	6 4	2b	4G]	2BB	2b	4e]	2BB	(4G]	(4e]	2b
.	5 #	.	4F#	.	.	4d#X	.	4F#)	4d#X)	.
2E	.	2b	2G	2E	2b	2e	2E	2G	2e	2b
=13	=13	=13	=13	=13	=13	=13	=13	=13	=13	=13
2F#	6	2dd	2A	2F#	2ddni	2dni	2F#	2A	2dni	2dd
*	*	*	*	*	*	*^	*	*	*	*
2D	7	2cc	2d	2D	2cc	2a	2f#\	2D	2d	2f#	2cc
*	*	*	*	*	*	*v	*v	*	*	*	*
=14	=14	=14	=14	=14	=14	=14	=14	=14	=14	=14
2G	.	2b	2d	2G	2b	2g	2G	2d	2g	2b
2D#X	5	2a	2B	2D#X	2a	2f#	2D#X	2B	2f#	2a
=15	=15	=15	=15	=15	=15	=15	=15	=15	=15	=15
1E	.	2g	2B	1E	2g	2e	2E	2B	2e	2g
.	.	2e	2G	.	2e	2B	2E	2G	2B	2e
=16	=16	=16	=16	=16	=16	=16	=16	=16	=16	=16
2r	.	2r	2r	2r	2r	2r	2r	2r	2r	2r
2C#X	5	2a	[2G	2C#X	2a	2e	2C#X	[2G	2e	2a
=17	=17	=17	=17	=17	=17	=17	=17	=17	=17	=17
2D	4	2a	4G]	2D	2a	2.d	2D	(4G]	2.d	2a
.	3	.	4F#	.	.	.	.	4F#)	.	.
2E	7	2g	2G	2E	2g	.	2E	2G	.	2g
.	#6\	.	.	.	.	4c#X	.	.	4c#X	.
=18	=18	=18	=18	=18	=18	=18	=18	=18	=18	=18
4F#	6	2f#	2A	4F#	2f#	2.d	(4F#	2A	[2d	2f#
4G	.	.	.	4G	.	.	4G)	.	.	.
2A	4	2e	2A	2A	2e	.	2A	2A	(4d]	2e
.	#	.	.	.	.	4c#X	.	.	4c#X)	.
=19	=19	=19	=19	=19	=19	=19	=19	=19	=19	=19
1D	.	2f#	2A	1D	2f#	2d	2D	2A	2d	2f#
.	.	2d	2F#	.	2d	2A	2D	2F#	2A	2d
=20	=20	=20	=20	=20	=20	=20	=20	=20	=20	=20
2r	.	2r	2r	2r	2r	2r	2r	2r	2r	2r
2G	6	2b	2B	2G	2b	2e	2G	2B	2e	2b
=21	=21	=21	=21	=21	=21	=21	=21	=21	=21	=21
2D#X	6	2b	2B	2D#X	2b	2f#	2D#X	2B	2f#	2b
2E	.	2g	2B	2E	2g	2e	2E	2B	2e	2g
=22	=22	=22	=22	=22	=22	=22	=22	=22	=22	=22
2AA	6 n	2a	2ryy	2AA	2c	2f#	2AA	2c	2f#	2a
2BB	#	2f#	4B	2BB	2f#	2d#X	2BB	(4B	2d#X	2f#
.	.	.	4A	.	.	.	.	4A)	.	.
=23	=23	=23	=23	=23	=23	=23	=23	=23	=23	=23
2E	.	2e	2G	2E	2e	2B	2E	2G	2e	2e
*	*	*	*v	*v	*	*	*	*	*	*
*	*	*	*	*v	*v	*	*	*	*
==	==	==	==	==	==	==	==	==
*-	*-	*-	*-	*-	*-	*-	*-	*-
!!!system-decoration: {(s1,s2,s3,s4)}{(s5,s6)}{(s7,s8)}
!!!RDF**kern: i = editorial accidental
!!!RDF**kern: > = above
!!!RDF**kern: < = below
!!!AGN: chorale
!!!EED: Derek Remeš
!!!EED2: Victor Phan
!!!END: 2023/11/28
!!!ENC: Wolfgang Drescher
!!!EEV: 2023/12/11
!!!title: @{ONM}. @{OTL}
!!!verovio: mnumInterval 1